X:13630
%766
T:Arthur Darley
% Nottingham Music Database
S:Formally, but with lift, via Phil Rowe
M:6/8
K:Cmaj
cB/2A/2|\
P:\>
G2C GFE|DCB, C3|
P:\>
c2d efe|dcB c2G|\
P:\>
c2d efe|\
M:9/8
dcB c2G AGF|\
M:6/8
EDC DCB,|CG,A, B,CD|
P:\>
Ccc \
P:\>
Gdd|\
P:\>
Gee \
P:\>
Gff|edc dcB|c3 cBA||
P:\>
P:segno
G2C GFE|DCB, C3|c2d efe|dcB
